public/swb_bec.svg

<?xml version="1.0"?>
<svg width="24" height="24" xmlns="http://www.w3.org/2000/svg" xmlns:svg="http://www.w3.org/2000/svg" class="icon icon-tabler icons-tabler-outline icon-tabler-cooker" stroke-linejoin="round" stroke-width="2">
 <g class="layer">
  <title>Layer 1</title>
  <path d="m0,0l24,0l0,24l-24,0l0,-24z" fill="#000000" fill-opacity="0" id="svg_1"/>
  <path d="m5,3m0,1.78a2,1.78 0 0 1 2,-1.78l10,0a2,1.78 0 0 1 2,1.78l0,12.44a2,1.78 0 0 1 -2,1.78l-10,0a2,1.78 0 0 1 -2,-1.78l0,-12.44z" fill="#000000" fill-opacity="0" id="svg_5" stroke="#000000"/>
  <path d="m8.2,19.1m0,0.35a0.43,0.35 0 0 1 0.43,-0.35l2.14,0a0.43,0.35 0 0 1 0.43,0.35l0,2.45a0.43,0.35 0 0 1 -0.43,0.35l-2.14,0a0.43,0.35 0 0 1 -0.43,-0.35l0,-2.45z" fill="#000000" id="svg_8" stroke="#000000" stroke-opacity="0"/>
  <path d="m13.3,19.13m0,0.35a0.43,0.35 0 0 1 0.43,-0.35l2.14,0a0.43,0.35 0 0 1 0.43,0.35l0,2.45a0.43,0.35 0 0 1 -0.43,0.35l-2.14,0a0.43,0.35 0 0 1 -0.43,-0.35l0,-2.45z" fill="#000000" id="svg_9" stroke="#000000" stroke-opacity="0"/>
  <ellipse cx="12.05" cy="14.95" fill="#000000" id="svg_11" rx="1.7" ry="1.7" stroke="#000000" stroke-opacity="0" transform="matrix(1 0 0 1 0 0)"/>
  <ellipse cx="12" cy="10.75" fill="#000000" id="svg_12" rx="1.7" ry="1.7" stroke="#000000" stroke-opacity="0"/>
 </g>
</svg>

<?xml version="1.0" encoding="UTF-8" standalone="no"?>
<svg
   width="1000"
   height="1000"
   class="icon icon-tabler icons-tabler-outline icon-tabler-cooker"
   stroke-linejoin="round"
   stroke-width="2"
   version="1.1"
   id="svg1"
   sodipodi:docname="swb_bec.svg"
   viewBox="0 0 24 24"
   inkscape:version="1.4 (86a8ad7, 2024-10-11)"
   xmlns:inkscape="http://www.inkscape.org/namespaces/inkscape"
   xmlns:sodipodi="http://sodipodi.sourceforge.net/DTD/sodipodi-0.dtd"
   xmlns="http://www.w3.org/2000/svg"
   xmlns:svg="http://www.w3.org/2000/svg">
  <defs
     id="defs1" />
  <sodipodi:namedview
     id="namedview1"
     pagecolor="#ffffff"
     bordercolor="#000000"
     borderopacity="0.25"
     inkscape:showpageshadow="2"
     inkscape:pageopacity="0.0"
     inkscape:pagecheckerboard="0"
     inkscape:deskcolor="#d1d1d1"
     inkscape:zoom="0.37150727"
     inkscape:cx="-257.06091"
     inkscape:cy="152.08316"
     inkscape:window-width="1920"
     inkscape:window-height="1009"
     inkscape:window-x="1912"
     inkscape:window-y="-8"
     inkscape:window-maximized="1"
     inkscape:current-layer="svg1" />
  <g
     class="layer"
     id="g1">
    <title
       id="title1">Layer 1</title>
    <path
       d="M 0,0 H 24 V 24 H 0 Z"
       fill="#000000"
       fill-opacity="0"
       id="svg_1" />
    <path
       d="M 5,3 M 5,4.78 A 2,1.78 0 0 1 7,3 h 10 a 2,1.78 0 0 1 2,1.78 V 17.22 A 2,1.78 0 0 1 17,19 H 7 A 2,1.78 0 0 1 5,17.22 Z"
       fill="#000000"
       fill-opacity="0"
       id="svg_5"
       stroke="#000000" />
    <path
       d="m 8.2,19.1 m 0,0.35 A 0.43,0.35 0 0 1 8.63,19.1 h 2.14 a 0.43,0.35 0 0 1 0.43,0.35 v 2.45 a 0.43,0.35 0 0 1 -0.43,0.35 H 8.63 A 0.43,0.35 0 0 1 8.2,21.9 Z"
       fill="#000000"
       id="svg_8"
       stroke="#000000"
       stroke-opacity="0" />
    <path
       d="m 13.3,19.13 m 0,0.35 a 0.43,0.35 0 0 1 0.43,-0.35 h 2.14 a 0.43,0.35 0 0 1 0.43,0.35 v 2.45 a 0.43,0.35 0 0 1 -0.43,0.35 H 13.73 A 0.43,0.35 0 0 1 13.3,21.93 Z"
       fill="#000000"
       id="svg_9"
       stroke="#000000"
       stroke-opacity="0" />
    <circle
       cx="12.05"
       cy="14.95"
       fill="#000000"
       id="svg_11"
       stroke="#000000"
       stroke-opacity="0"
       r="1.7" />
    <circle
       cx="12"
       cy="10.75"
       fill="#000000"
       id="svg_12"
       stroke="#000000"
       stroke-opacity="0"
       r="1.7" />
  </g>
</svg>
